images/clients-logo-icons/client-logo-4.svg

<svg width="82" height="41" viewBox="0 0 82 41" fill="none" xmlns="http://www.w3.org/2000/svg">
<path d="M43.8909 11.1946C43.8843 8.22793 42.5967 5.38444 40.3097 3.28643C38.0228 1.18841 34.9228 0.00673632 31.6882 0V0C28.4527 0.00538941 25.3513 1.18647 23.0632 3.28463C20.775 5.38279 19.4866 8.22705 19.48 11.1946V27.5544C19.48 27.5544 43.8882 25.0611 43.8909 11.1972V11.1946Z" fill="currentColor"/>
<path d="M0 32.924C0.00586666 34.9882 0.902337 36.9664 2.49352 38.4263C4.0847 39.8862 6.24122 40.709 8.49185 40.7151C10.742 40.709 12.8981 39.8865 14.4892 38.4272C16.0803 36.9679 16.9771 34.9903 16.9837 32.9265V21.5432C16.9837 21.5432 0 23.2794 0 32.924ZM8.49185 34.9635C8.05204 34.9635 7.62211 34.8439 7.25642 34.6198C6.89073 34.3957 6.60571 34.0772 6.4374 33.7045C6.26909 33.3318 6.22505 32.9217 6.31085 32.5261C6.39666 32.1304 6.60845 31.767 6.91944 31.4818C7.23043 31.1965 7.62666 31.0023 8.05802 30.9236C8.48938 30.8449 8.9365 30.8853 9.34284 31.0397C9.74917 31.194 10.0965 31.4554 10.3408 31.7908C10.5852 32.1262 10.7156 32.5206 10.7156 32.924C10.7167 33.1924 10.66 33.4585 10.5487 33.7068C10.4374 33.9552 10.2738 34.1809 10.0672 34.3711C9.86062 34.5613 9.6151 34.7122 9.34477 34.8152C9.07443 34.9182 8.78458 34.9712 8.49185 34.9712V34.9635Z" fill="currentColor"/>
<path d="M25.7405 33.8306H24.053V35.5737H23.1741V31.3081H25.9514V32.02H24.053V33.1216H25.7405V33.8306ZM29.9651 33.5376C29.9651 33.9575 29.8909 34.3257 29.7424 34.6421C29.594 34.9585 29.3811 35.2026 29.1038 35.3745C28.8284 35.5464 28.512 35.6323 28.1545 35.6323C27.801 35.6323 27.4856 35.5474 27.2083 35.3774C26.9309 35.2075 26.7161 34.9653 26.5637 34.6509C26.4114 34.3345 26.3342 33.9712 26.3323 33.561V33.3501C26.3323 32.9302 26.4075 32.561 26.5579 32.2427C26.7102 31.9224 26.9241 31.6772 27.1995 31.5073C27.4768 31.3354 27.7932 31.2495 28.1487 31.2495C28.5042 31.2495 28.8196 31.3354 29.095 31.5073C29.3723 31.6772 29.5862 31.9224 29.7366 32.2427C29.8889 32.561 29.9651 32.9292 29.9651 33.3472V33.5376ZM29.0745 33.3442C29.0745 32.897 28.9944 32.5571 28.8342 32.3247C28.6741 32.0923 28.4456 31.9761 28.1487 31.9761C27.8538 31.9761 27.6262 32.0913 27.4661 32.3218C27.3059 32.5503 27.2249 32.8862 27.2229 33.3296V33.5376C27.2229 33.9731 27.303 34.311 27.4631 34.5513C27.6233 34.7915 27.8538 34.9116 28.1545 34.9116C28.4495 34.9116 28.676 34.7964 28.8342 34.5659C28.9924 34.3335 29.0725 33.9956 29.0745 33.5522V33.3442ZM32.8157 34.4546C32.8157 34.2886 32.7571 34.1616 32.6399 34.0737C32.5227 33.9839 32.3118 33.8901 32.0071 33.7925C31.7024 33.6929 31.4612 33.5952 31.2834 33.4995C30.7991 33.2378 30.5569 32.8853 30.5569 32.4419C30.5569 32.2114 30.6213 32.0063 30.7502 31.8267C30.8811 31.645 31.0676 31.5034 31.3098 31.4019C31.554 31.3003 31.8274 31.2495 32.1301 31.2495C32.4348 31.2495 32.7063 31.3052 32.9446 31.4165C33.1829 31.5259 33.3674 31.6812 33.4983 31.8823C33.6311 32.0835 33.6975 32.312 33.6975 32.5679H32.8186C32.8186 32.3726 32.7571 32.2212 32.634 32.1138C32.511 32.0044 32.3381 31.9497 32.1155 31.9497C31.9006 31.9497 31.7336 31.9956 31.6145 32.0874C31.4954 32.1772 31.4358 32.2964 31.4358 32.4448C31.4358 32.5835 31.5051 32.6997 31.6438 32.7935C31.7844 32.8872 31.9905 32.9751 32.262 33.0571C32.762 33.2075 33.1262 33.394 33.3547 33.6167C33.5833 33.8394 33.6975 34.1167 33.6975 34.4487C33.6975 34.8179 33.5579 35.1079 33.2786 35.3188C32.9993 35.5278 32.6233 35.6323 32.1506 35.6323C31.8225 35.6323 31.5237 35.5728 31.2542 35.4536C30.9846 35.3325 30.7786 35.1675 30.636 34.9585C30.4954 34.7495 30.425 34.5073 30.425 34.2319H31.3069C31.3069 34.7026 31.5881 34.938 32.1506 34.938C32.3596 34.938 32.5227 34.896 32.6399 34.812C32.7571 34.7261 32.8157 34.6069 32.8157 34.4546ZM37.5061 32.02H36.1995V35.5737H35.3206V32.02H34.0315V31.3081H37.5061V32.02ZM40.5764 33.7251H38.8889V34.8677H40.8694V35.5737H38.01V31.3081H40.8635V32.02H38.8889V33.0366H40.5764V33.7251ZM42.9641 34.0122H42.2639V35.5737H41.385V31.3081H42.97C43.4739 31.3081 43.8625 31.4204 44.136 31.645C44.4094 31.8696 44.5461 32.187 44.5461 32.5972C44.5461 32.8882 44.4827 33.1313 44.3557 33.3267C44.2307 33.52 44.0403 33.6743 43.7844 33.7896L44.7073 35.5327V35.5737H43.7639L42.9641 34.0122ZM42.2639 33.3003H42.9729C43.1936 33.3003 43.3645 33.2446 43.4856 33.1333C43.6067 33.02 43.6672 32.8647 43.6672 32.6675C43.6672 32.4663 43.6096 32.3081 43.4944 32.1929C43.3811 32.0776 43.2063 32.02 42.97 32.02H42.2639V33.3003ZM47.5901 34.0708V35.5737H46.7112V31.3081H48.3752C48.6956 31.3081 48.9768 31.3667 49.219 31.4839C49.4631 31.6011 49.6506 31.7681 49.7815 31.9849C49.9124 32.1997 49.9778 32.4448 49.9778 32.7202C49.9778 33.1382 49.8342 33.4683 49.5471 33.7104C49.262 33.9507 48.8665 34.0708 48.3606 34.0708H47.5901ZM47.5901 33.3589H48.3752C48.6077 33.3589 48.7844 33.3042 48.9055 33.1948C49.0286 33.0854 49.0901 32.9292 49.0901 32.7261C49.0901 32.5171 49.0286 32.3481 48.9055 32.2192C48.7825 32.0903 48.6125 32.0239 48.3958 32.02H47.5901V33.3589ZM53.1506 33.7251H51.4631V34.8677H53.4436V35.5737H50.5842V31.3081H53.4377V32.02H51.4631V33.0366H53.1506V33.7251ZM57.2288 32.02H55.9221V35.5737H55.0432V32.02H53.7542V31.3081H57.2288V32.02ZM60.2991 33.7251H58.6116V34.8677H60.592V35.5737H57.7327V31.3081H60.5862V32.02H58.6116V33.0366H60.2991V33.7251ZM62.6868 34.0122H61.9866V35.5737H61.1077V31.3081H62.6926C63.1965 31.3081 63.5852 31.4204 63.8586 31.645C64.1321 31.8696 64.2688 32.187 64.2688 32.5972C64.2688 32.8882 64.2053 33.1313 64.0784 33.3267C63.9534 33.52 63.7629 33.6743 63.5071 33.7896L64.4299 35.5327V35.5737H63.4866L62.6868 34.0122ZM61.9866 33.3003H62.6956C62.9163 33.3003 63.0872 33.2446 63.2083 33.1333C63.3293 33.02 63.3899 32.8647 63.3899 32.6675C63.3899 32.4663 63.3323 32.3081 63.217 32.1929C63.1038 32.0776 62.929 32.02 62.6926 32.02H61.9866V33.3003ZM67.1516 34.4546C67.1516 34.2886 67.093 34.1616 66.9758 34.0737C66.8586 33.9839 66.6477 33.8901 66.343 33.7925C66.0383 33.6929 65.7971 33.5952 65.6194 33.4995C65.135 33.2378 64.8928 32.8853 64.8928 32.4419C64.8928 32.2114 64.9573 32.0063 65.0862 31.8267C65.217 31.645 65.4036 31.5034 65.6458 31.4019C65.8899 31.3003 66.1633 31.2495 66.4661 31.2495C66.7708 31.2495 67.0422 31.3052 67.2805 31.4165C67.5188 31.5259 67.7034 31.6812 67.8342 31.8823C67.967 32.0835 68.0334 32.312 68.0334 32.5679H67.1545C67.1545 32.3726 67.093 32.2212 66.97 32.1138C66.8469 32.0044 66.6741 31.9497 66.4514 31.9497C66.2366 31.9497 66.0696 31.9956 65.9504 32.0874C65.8313 32.1772 65.7717 32.2964 65.7717 32.4448C65.7717 32.5835 65.8411 32.6997 65.9797 32.7935C66.1204 32.8872 66.3264 32.9751 66.5979 33.0571C67.0979 33.2075 67.4622 33.394 67.6907 33.6167C67.9192 33.8394 68.0334 34.1167 68.0334 34.4487C68.0334 34.8179 67.8938 35.1079 67.6145 35.3188C67.3352 35.5278 66.9592 35.6323 66.4866 35.6323C66.1584 35.6323 65.8596 35.5728 65.5901 35.4536C65.3206 35.3325 65.1145 35.1675 64.9719 34.9585C64.8313 34.7495 64.761 34.5073 64.761 34.2319H65.6428C65.6428 34.7026 65.9241 34.938 66.4866 34.938C66.6956 34.938 66.8586 34.896 66.9758 34.812C67.093 34.7261 67.1516 34.6069 67.1516 34.4546Z" fill="currentColor"/>
</svg>

<svg width="82" height="41" fill="none" xmlns="http://www.w3.org/2000/svg"><path d="M43.89 11.195c-.006-2.967-1.293-5.81-3.58-7.909C38.023 1.188 34.923.006 31.688 0c-3.235.005-6.337 1.186-8.625 3.285-2.288 2.098-3.576 4.942-3.583 7.91v16.36s24.408-2.494 24.41-16.358v-.002zM0 32.924c.006 2.064.902 4.042 2.494 5.502 1.59 1.46 3.747 2.283 5.998 2.29 2.25-.007 4.406-.83 5.997-2.289 1.591-1.46 2.488-3.437 2.495-5.5V21.542S0 23.28 0 32.924zm8.492 2.04c-.44 0-.87-.12-1.236-.344a2.088 2.088 0 01-.819-.915 1.883 1.883 0 01-.126-1.179c.086-.396.297-.759.608-1.044.311-.285.708-.48 1.139-.558a2.41 2.41 0 011.285.116c.406.154.754.415.998.75.244.336.375.73.375 1.134 0 .268-.056.535-.167.783a2.036 2.036 0 01-.482.664c-.206.19-.452.341-.722.444-.27.103-.56.156-.853.156v-.007zM25.74 33.83h-1.687v1.744h-.879v-4.266h2.777v.712h-1.898v1.102h1.688v.709zm4.225-.292c0 .42-.074.788-.223 1.104-.148.316-.36.56-.638.732a1.755 1.755 0 01-.95.258c-.353 0-.668-.085-.946-.255a1.695 1.695 0 01-.644-.726 2.511 2.511 0 01-.232-1.09v-.21c0-.42.075-.79.226-1.108.152-.32.366-.566.642-.736.277-.172.593-.258.949-.258.355 0 .67.086.946.258.277.17.491.415.642.736.152.318.228.686.228 1.104v.19zm-.89-.194c0-.447-.08-.787-.24-1.02a.783.783 0 00-.686-.348.782.782 0 00-.683.346c-.16.228-.241.564-.243 1.008v.208c0 .435.08.773.24 1.013.16.24.39.36.691.36a.775.775 0 00.68-.345c.158-.233.239-.57.24-1.014v-.208zm3.74 1.11a.447.447 0 00-.175-.38c-.117-.09-.328-.184-.633-.282a4.565 4.565 0 01-.724-.293c-.484-.261-.726-.614-.726-1.057 0-.23.064-.436.193-.615.131-.182.318-.324.56-.425.244-.102.517-.152.82-.152.305 0 .576.055.815.166.238.11.422.265.553.466.133.201.2.43.2.686h-.88c0-.195-.06-.347-.184-.454-.123-.11-.296-.164-.519-.164-.214 0-.381.046-.5.137a.426.426 0 00-.18.358c0 .139.07.255.209.349.14.093.347.181.618.263.5.15.864.337 1.093.56.228.222.343.5.343.832 0 .369-.14.659-.42.87-.279.209-.655.313-1.127.313-.329 0-.627-.06-.897-.178a1.438 1.438 0 01-.618-.495 1.27 1.27 0 01-.211-.727h.882c0 .47.281.706.844.706.209 0 .372-.042.489-.126a.418.418 0 00.176-.357zm4.691-2.434H36.2v3.554h-.88V32.02h-1.288v-.712h3.474v.712zm3.07 1.705H38.89v1.143h1.98v.706H38.01v-4.266h2.854v.712h-1.975v1.017h1.687v.688zm2.388.287h-.7v1.562h-.879v-4.266h1.585c.504 0 .892.112 1.166.337.273.225.41.542.41.952 0 .291-.063.534-.19.73a1.284 1.284 0 01-.572.463l.923 1.743v.04h-.943l-.8-1.56zm-.7-.712h.709c.22 0 .392-.055.513-.167a.607.607 0 00.181-.466c0-.2-.057-.359-.173-.474-.113-.115-.288-.173-.524-.173h-.706v1.28zm5.326.77v1.504h-.879v-4.266h1.664c.32 0 .602.059.844.176.244.117.432.284.563.5.13.216.196.46.196.736 0 .418-.144.748-.43.99-.286.24-.681.36-1.187.36h-.77zm0-.711h.785c.233 0 .41-.055.53-.164.124-.11.185-.266.185-.469a.704.704 0 00-.184-.507c-.123-.129-.294-.195-.51-.199h-.806v1.339zm5.56.366h-1.687v1.143h1.98v.706h-2.859v-4.266h2.854v.712h-1.975v1.017h1.688v.688zm4.079-1.705h-1.307v3.554h-.879V32.02h-1.289v-.712h3.475v.712zm3.07 1.705h-1.687v1.143h1.98v.706h-2.86v-4.266h2.854v.712h-1.974v1.017h1.687v.688zm2.388.287h-.7v1.562h-.88v-4.266h1.586c.504 0 .892.112 1.166.337.273.225.41.542.41.952 0 .291-.064.534-.19.73a1.284 1.284 0 01-.572.463l.923 1.743v.04h-.943l-.8-1.56zm-.7-.712h.709c.22 0 .391-.055.512-.167a.607.607 0 00.182-.466c0-.2-.058-.359-.173-.474-.113-.115-.288-.173-.524-.173h-.706v1.28zm5.165 1.155a.447.447 0 00-.176-.381c-.117-.09-.328-.184-.633-.282a4.56 4.56 0 01-.724-.293c-.484-.261-.726-.614-.726-1.057 0-.23.064-.436.193-.615.131-.182.318-.324.56-.425.244-.102.517-.152.82-.152.305 0 .576.055.815.166.238.11.422.265.553.466.133.201.2.43.2.686h-.88c0-.195-.061-.347-.184-.454-.123-.11-.296-.164-.519-.164-.214 0-.381.046-.5.137a.426.426 0 00-.18.358c0 .139.07.255.209.349.14.093.346.181.618.263.5.15.864.337 1.093.56.228.222.342.5.342.832 0 .369-.14.659-.418.87-.28.209-.656.313-1.128.313-.329 0-.627-.06-.897-.178a1.439 1.439 0 01-.618-.495 1.27 1.27 0 01-.211-.727h.882c0 .47.281.706.844.706.209 0 .372-.042.489-.126a.418.418 0 00.176-.357z" fill="currentColor"/></svg>
